public/calandar/linked_in.svg

<svg width="178" height="177" viewBox="0 0 178 177" fill="none" xmlns="http://www.w3.org/2000/svg">
<path d="M146.458 0H38.5417C17.259 0 0 17.259 0 38.5417V146.458C0 167.741 17.259 185 38.5417 185H146.458C167.749 185 185 167.741 185 146.458V38.5417C185 17.259 167.749 0 146.458 0ZM61.6667 146.458H38.5417V61.6667H61.6667V146.458ZM50.1042 51.8925C42.6579 51.8925 36.6146 45.8029 36.6146 38.295C36.6146 30.7871 42.6579 24.6975 50.1042 24.6975C57.5504 24.6975 63.5938 30.7871 63.5938 38.295C63.5938 45.8029 57.5581 51.8925 50.1042 51.8925ZM154.167 146.458H131.042V103.261C131.042 77.2992 100.208 79.2648 100.208 103.261V146.458H77.0833V61.6667H100.208V75.2719C110.969 55.3381 154.167 53.8658 154.167 94.3577V146.458Z" fill="white"/>
</svg>

<svg xmlns="http://www.w3.org/2000/svg" width="178" height="177" fill="none"><path fill="#fff" d="M146.458 0H38.542C17.259 0 0 17.259 0 38.542v107.916C0 167.741 17.259 185 38.542 185h107.916C167.749 185 185 167.741 185 146.458V38.542C185 17.259 167.749 0 146.458 0M61.667 146.458H38.542V61.667h23.125zM50.104 51.893c-7.446 0-13.49-6.09-13.49-13.598s6.044-13.597 13.49-13.597 13.49 6.09 13.49 13.597c0 7.508-6.036 13.597-13.49 13.597m104.063 94.565h-23.125v-43.197c0-25.962-30.834-23.996-30.834 0v43.197H77.083V61.667h23.125v13.605c10.761-19.934 53.959-21.406 53.959 19.086z"/></svg>
